; generated by PrusaSlicer 2.9.2 on 2025-04-13 at 02:57:29 UTC


;
;
; 

; external perimeters extrusion width = 0.68mm
; perimeters extrusion width = 0.68mm
; infill extrusion width = 0.68mm
; solid infill extrusion width = 0.68mm
; top infill extrusion width = 0.60mm
; first layer extrusion width = 0.65mm

M73 P0 R35
M73 Q0 S35
M201 X1000 Y1000 Z200 E5000 ; sets maximum accelerations, mm/sec^2
M203 X200 Y200 Z12 E120 ; sets maximum feedrates, mm / sec
M204 S1250 T1250 ; sets acceleration (S) and retract acceleration (R), mm/sec^2
M205 X8.00 Y8.00 Z0.40 E4.50 ; sets the jerk limits, mm/sec
M205 S0 T0 ; sets the minimum extruding and travel feed rate, mm/sec

; printing object Loop Holder (1).stl id:0 copy 0
; stop printing object Loop Holder (1).stl id:0 copy 0

;TYPE:Custom
M862.3 P "MK3S" ; printer model check
M862.1 P0.6 ; nozzle diameter check
M115 U3.14.1 ; tell printer latest fw version
G90 ; use absolute coordinates
M83 ; extruder relative mode
M104 S240 ; set extruder temp
M140 S85 ; set bed temp
M190 S85 ; wait for bed temp
M109 S240 ; wait for extruder temp
G28 W ; home all without mesh bed level
G80 X84.2929 Y91.0414 W81.4142 H27.9172 ; mesh bed levelling

G1 Z0.2 F720
G1 Y-3 F1000 ; go outside print area
G92 E0
G1 X60 E9 F1000 ; intro line
G1 X100 E12.5 F1000 ; intro line

G92 E0
M221 S95
G21 ; set units to millimeters
G90 ; use absolute coordinates
M83 ; use relative distances for extrusion

M900 K0.04 ; Filament gcode LA 1.5
M900 K24 ; Filament gcode LA 1.0




M107
;LAYER_CHANGE
;Z:0.2
;HEIGHT:0.2
G1 E-1 F2100
G1 Z.4 F720
G1 X84.988 Y92.364 F10800
G1 Z.2 F720
G1 E1 F1500
M204 S800
;TYPE:Skirt/Brim
;WIDTH:0.65
G1 F1200
G1 X86.029 Y91.516 E.06778
G1 X86.9 Y91.345 E.04481
G1 X163.1 Y91.345 E3.84649
G1 X164.384 Y91.736 E.06775
G1 X165.232 Y92.777 E.06778
G1 X165.404 Y93.649 E.04487
G1 X165.404 Y116.352 E1.14602
G1 X165.012 Y117.636 E.06777
G1 X163.971 Y118.484 E.06778
G1 X163.1 Y118.655 E.04481
G1 X86.9 Y118.655 E3.84649
G1 X85.616 Y118.264 E.06775
G1 X84.768 Y117.223 E.06778
G1 X84.596 Y116.352 E.04482
G1 X84.596 Y93.649 E1.14602
G1 X84.962 Y92.45 E.06328
M204 S1000
;WIPE_START
G1 F8640
G1 X84.988 Y92.364 E-.02075
G1 X86.029 Y91.516 E-.31003
G1 X86.9 Y91.345 E-.20496
G1 X88.911 Y91.345 E-.46426
;WIPE_END
G1 Z.4 F720
; printing object Loop Holder (1).stl id:0 copy 0
G1 X121.688 Y104.667 F10800
G1 Z.2 F720
G1 E1 F1500
M204 S800
;TYPE:Perimeter
;WIDTH:0.649999
G1 F1200
G1 X121.69 Y104.673 E.00032
G1 X121.718 Y105.202 E.02674
G1 X121.568 Y105.73 E.02771
G1 X121.426 Y105.969 E.01403
G1 X121.054 Y106.373 E.02772
G1 X120.561 Y106.637 E.02823
G1 X120.008 Y106.723 E.02825
G1 X119.654 Y106.688 E.01796
G1 X119.132 Y106.496 E.02808
G1 X118.698 Y106.14 E.02834
G1 X118.413 Y105.671 E.0277
G1 X118.309 Y105.329 E.01804
G1 X118.278 Y105.009 E.01623
G1 X118.313 Y104.654 E.01801
G1 X118.47 Y104.194 E.02454
G1 X118.777 Y103.79 E.02561
G1 X119.051 Y103.565 E.0179
G1 X119.554 Y103.331 E.028
G1 X120.082 Y103.275 E.0268
G1 X120.347 Y103.315 E.01353
G1 X120.872 Y103.508 E.02824
G1 X121.304 Y103.866 E.02832
G1 X121.587 Y104.333 E.02756
G1 X121.662 Y104.581 E.01308
M204 S1000
G1 X121.089 Y104.787 F10800
M204 S800
;TYPE:External perimeter
G1 F1200
G1 X121.106 Y105.169 E.0193
G1 X120.957 Y105.582 E.02216
G1 X120.663 Y105.903 E.02197
G1 X120.268 Y106.088 E.02202
G1 X119.831 Y106.108 E.02208
G1 X119.423 Y105.96 E.02191
G1 X119.099 Y105.665 E.02212
G1 X118.914 Y105.27 E.02202
G1 X118.882 Y104.95 E.01623
G1 X119.008 Y104.475 E.02481
G1 X119.302 Y104.122 E.02319
G1 X119.733 Y103.915 E.02414
G1 X120.17 Y103.895 E.02208
G1 X120.579 Y104.044 E.02197
G1 X120.902 Y104.339 E.02208
G1 X121.071 Y104.7 E.02012
M204 S1000
;WIPE_START
G1 F8640
G1 X121.089 Y104.787 E-.02051
G1 X121.106 Y105.169 E-.08829
G1 X120.957 Y105.582 E-.10138
G1 X120.663 Y105.903 E-.10051
G1 X120.268 Y106.088 E-.10071
G1 X119.831 Y106.108 E-.10101
G1 X119.423 Y105.96 E-.10021
G1 X119.099 Y105.665 E-.10118
G1 X118.914 Y105.27 E-.10071
G1 X118.882 Y104.95 E-.07426
G1 X119.006 Y104.484 E-.11123
;WIPE_END
G1 Z.4 F720
G1 X161.968 Y115.219 F10800
G1 Z.2 F720
G1 E1 F1500
M204 S800
;TYPE:Perimeter
G1 F1200
G1 X88.032 Y115.219 E3.7322
G1 X88.032 Y94.781 E1.03169
M73 P1 R35
M73 Q1 S35
G1 X161.968 Y94.781 E3.7322
G1 X161.968 Y105 E.51584
M73 P1 R34
G1 X161.968 Y115.129 E.5113
M204 S1000
G1 X162.575 Y115.827 F10800
M204 S800
;TYPE:External perimeter
G1 F1200
G1 X87.425 Y115.827 E3.79348
G1 X87.425 Y94.174 E1.09302
G1 X162.575 Y94.174 E3.79348
G1 X162.575 Y105 E.54648
G1 X162.575 Y115.737 E.54199
M204 S1000
;WIPE_START
G1 F8640
G1 X162.575 Y115.827 E-.02078
G1 X158.334 Y115.827 E-.97922
;WIPE_END
G1 Z.4 F720
G1 X161.725 Y96.262 F10800
G1 Z.2 F720
G1 E1 F1500
M204 S800
;TYPE:Solid infill
;WIDTH:0.655253
G1 F1200
G1 X160.76 Y95.297 E.06949
G1 X159.894 Y95.297 E.04409
G1 X161.452 Y96.855 E.11218
G1 X161.452 Y97.72 E.04404
M73 Q1 S34
G1 X159.028 Y95.297 E.17451
G1 X158.162 Y95.297 E.04409
G1 X161.452 Y98.586 E.23686
G1 X161.452 Y99.452 E.04409
G1 X157.296 Y95.297 E.29922
G1 X156.43 Y95.297 E.04409
G1 X161.452 Y100.318 E.36158
G1 X161.452 Y101.184 E.04409
G1 X155.564 Y95.297 E.42393
G1 X154.698 Y95.297 E.04409
G1 X161.452 Y102.05 E.48629
G1 X161.452 Y102.916 E.04409
M73 Q2 S34
G1 X153.832 Y95.297 E.54865
G1 X152.966 Y95.297 E.04409
M73 P2 R34
G1 X161.452 Y103.782 E.611
G1 X161.452 Y104.648 E.04409
G1 X152.1 Y95.297 E.67336
G1 X151.234 Y95.297 E.04409
G1 X161.452 Y105.514 E.73572
G1 X161.452 Y106.38 E.04409
G1 X150.368 Y95.297 E.79807
G1 X149.502 Y95.297 E.04409
G1 X161.452 Y107.246 E.86043
G1 X161.452 Y108.112 E.04409
G1 X148.636 Y95.297 E.92279
G1 X147.77 Y95.297 E.04409
G1 X161.452 Y108.978 E.98515
G1 X161.452 Y109.844 E.04409
G1 X146.904 Y95.297 E1.0475
G1 X146.038 Y95.297 E.04409
G1 X161.452 Y110.71 E1.10986
G1 X161.452 Y111.576 E.04409
G1 X145.173 Y95.297 E1.17218
G1 X144.307 Y95.297 E.04409
G1 X161.452 Y112.442 E1.23454
G1 X161.452 Y113.308 E.04409
G1 X143.441 Y95.297 E1.29689
G1 X142.575 Y95.297 E.04409
G1 X161.452 Y114.174 E1.35925
G1 X161.452 Y114.703 E.02693
G1 X161.115 Y114.703 E.01716
G1 X141.709 Y95.297 E1.39734
G1 X140.843 Y95.297 E.04409
G1 X160.249 Y114.703 E1.39734
G1 X159.383 Y114.703 E.04409
G1 X139.977 Y95.297 E1.39734
G1 X139.111 Y95.297 E.04409
G1 X158.518 Y114.703 E1.39738
G1 X157.652 Y114.703 E.04409
G1 X138.245 Y95.297 E1.39738
G1 X137.379 Y95.297 E.04409
G1 X156.786 Y114.703 E1.39738
G1 X155.92 Y114.703 E.04409
M73 P3 R34
M73 Q3 S34
G1 X136.513 Y95.297 E1.39738
G1 X135.647 Y95.297 E.04409
G1 X155.054 Y114.703 E1.39738
G1 X154.188 Y114.703 E.04409
G1 X134.781 Y95.297 E1.39738
G1 X133.915 Y95.297 E.04409
G1 X153.322 Y114.703 E1.39738
G1 X152.456 Y114.703 E.04409
G1 X133.049 Y95.297 E1.39738
G1 X132.183 Y95.297 E.04409
G1 X151.59 Y114.703 E1.39738
G1 X150.724 Y114.703 E.04409
G1 X131.317 Y95.297 E1.39738
G1 X130.451 Y95.297 E.04409
G1 X149.858 Y114.703 E1.39738
G1 X148.992 Y114.703 E.04409
G1 X129.585 Y95.297 E1.39738
G1 X128.719 Y95.297 E.04409
G1 X148.126 Y114.703 E1.39738
G1 X147.26 Y114.703 E.04409
G1 X127.853 Y95.297 E1.39738
G1 X126.987 Y95.297 E.04409
G1 X146.394 Y114.703 E1.39738
G1 X145.528 Y114.703 E.04409
G1 X126.121 Y95.297 E1.39738
G1 X125.255 Y95.297 E.04409
G1 X144.662 Y114.703 E1.39738
G1 X143.796 Y114.703 E.04409
G1 X124.389 Y95.297 E1.39738
G1 X123.523 Y95.297 E.04409
M73 P4 R34
M73 Q4 S34
G1 X142.93 Y114.703 E1.39738
G1 X142.064 Y114.703 E.04409
M73 P4 R33
G1 X122.657 Y95.297 E1.39738
G1 X121.791 Y95.297 E.04409
G1 X141.198 Y114.703 E1.39738
G1 X140.332 Y114.703 E.04409
G1 X120.925 Y95.297 E1.39738
G1 X120.059 Y95.297 E.04409
G1 X139.466 Y114.703 E1.39738
G1 X138.6 Y114.703 E.04409
G1 X119.193 Y95.297 E1.39738
G1 X118.327 Y95.297 E.04409
G1 X137.734 Y114.703 E1.39738
G1 X136.868 Y114.703 E.04409
G1 X117.461 Y95.297 E1.39738
G1 X116.596 Y95.297 E.04404
G1 X136.002 Y114.703 E1.39734
G1 X135.136 Y114.703 E.04409
G1 X115.73 Y95.297 E1.39734
G1 X114.864 Y95.297 E.04409
M73 Q4 S33
G1 X134.27 Y114.703 E1.39734
G1 X133.404 Y114.703 E.04409
G1 X113.998 Y95.297 E1.39734
G1 X113.132 Y95.297 E.04409
G1 X132.538 Y114.703 E1.39734
G1 X131.672 Y114.703 E.04409
G1 X122.231 Y105.262 E.67981
G1 X122.183 Y105.489 E.01181
G1 X122.032 Y105.929 E.02369
G1 X130.806 Y114.703 E.63178
G1 X129.941 Y114.703 E.04404
G1 X121.69 Y106.453 E.59408
M73 P5 R33
G1 X121.499 Y106.676 E.01495
M73 Q5 S33
G1 X121.236 Y106.865 E.01649
G1 X129.075 Y114.703 E.56442
G1 X128.209 Y114.703 E.04409
G1 X120.428 Y106.923 E.56024
M204 S1000
;WIPE_START
G1 F8640
G1 X123.49 Y109.985 E-1
;WIPE_END
G1 Z.4 F720
G1 X120.009 Y103.04 F10800
G1 Z.2 F720
G1 E1 F1500
M204 S800
G1 F1200
G1 X112.266 Y95.297 E.55754
G1 X111.4 Y95.297 E.04409
G1 X119.076 Y102.973 E.55272
G1 X118.797 Y103.115 E.01594
G1 X118.539 Y103.302 E.01622
G1 X110.534 Y95.297 E.57641
G1 X109.668 Y95.297 E.04409
G1 X118.137 Y103.765 E.60978
G1 X118.009 Y103.959 E.01183
G1 X117.868 Y104.363 E.02179
G1 X108.802 Y95.297 E.6528
G1 X107.936 Y95.297 E.04409
G1 X117.777 Y105.138 E.70861
G1 X117.813 Y105.505 E.01878
G1 X117.891 Y105.773 E.01421
G1 X118.115 Y106.207 E.02487
G1 X118.318 Y106.491 E.01777
G1 X118.721 Y106.837 E.02704
G1 X119.019 Y107.022 E.01786
G1 X119.508 Y107.183 E.02621
G1 X119.686 Y107.225 E.00931
G1 X119.881 Y107.241 E.00996
G1 X127.343 Y114.703 E.53731
G1 X126.477 Y114.703 E.04409
G1 X107.07 Y95.297 E1.39738
G1 X106.204 Y95.297 E.04409
G1 X125.611 Y114.703 E1.39738
G1 X124.745 Y114.703 E.04409
G1 X105.338 Y95.297 E1.39738
G1 X104.472 Y95.297 E.04409
G1 X123.879 Y114.703 E1.39738
G1 X123.013 Y114.703 E.04409
G1 X103.606 Y95.297 E1.39738
G1 X102.74 Y95.297 E.04409
G1 X122.147 Y114.703 E1.39738
G1 X121.281 Y114.703 E.04409
G1 X101.874 Y95.297 E1.39738
G1 X101.008 Y95.297 E.04409
G1 X120.415 Y114.703 E1.39738
G1 X119.549 Y114.703 E.04409
G1 X100.142 Y95.297 E1.39738
G1 X99.276 Y95.297 E.04409
G1 X118.683 Y114.703 E1.39738
G1 X117.817 Y114.703 E.04409
G1 X98.41 Y95.297 E1.39738
G1 X97.544 Y95.297 E.04409
M73 P6 R33
M73 Q6 S33
G1 X116.951 Y114.703 E1.39738
G1 X116.085 Y114.703 E.04409
G1 X96.678 Y95.297 E1.39738
G1 X95.812 Y95.297 E.04409
G1 X115.219 Y114.703 E1.39738
G1 X114.353 Y114.703 E.04409
G1 X94.946 Y95.297 E1.39738
G1 X94.08 Y95.297 E.04409
G1 X113.487 Y114.703 E1.39738
G1 X112.621 Y114.703 E.04409
G1 X93.214 Y95.297 E1.39738
G1 X92.348 Y95.297 E.04409
G1 X111.755 Y114.703 E1.39738
G1 X110.889 Y114.703 E.04409
G1 X91.482 Y95.297 E1.39738
G1 X90.616 Y95.297 E.04409
G1 X110.023 Y114.703 E1.39738
G1 X109.157 Y114.703 E.04409
G1 X89.75 Y95.297 E1.39738
G1 X88.884 Y95.297 E.04409
G1 X108.291 Y114.703 E1.39738
G1 X107.425 Y114.703 E.04409
G1 X88.548 Y95.826 E1.35925
G1 X88.548 Y96.692 E.04409
G1 X106.559 Y114.703 E1.29689
G1 X105.693 Y114.703 E.04409
G1 X88.548 Y97.558 E1.23454
G1 X88.548 Y98.424 E.04409
M73 P6 R32
G1 X104.827 Y114.703 E1.17218
G1 X103.961 Y114.703 E.04409
M73 P7 R32
M73 Q7 S33
G1 X88.548 Y99.29 E1.10982
G1 X88.548 Y100.156 E.04409
G1 X103.095 Y114.703 E1.04747
G1 X102.229 Y114.703 E.04409
G1 X88.548 Y101.022 E.98511
G1 X88.548 Y101.888 E.04409
G1 X101.364 Y114.703 E.92279
G1 X100.498 Y114.703 E.04409
G1 X88.548 Y102.754 E.86043
G1 X88.548 Y103.62 E.04409
G1 X99.632 Y114.703 E.79807
G1 X98.766 Y114.703 E.04409
G1 X88.548 Y104.486 E.73572
G1 X88.548 Y105.352 E.04409
G1 X97.9 Y114.703 E.67336
G1 X97.034 Y114.703 E.04409
G1 X88.548 Y106.218 E.611
G1 X88.548 Y107.084 E.04409
G1 X96.168 Y114.703 E.54865
G1 X95.302 Y114.703 E.04409
G1 X88.548 Y107.95 E.48629
G1 X88.548 Y108.816 E.04409
G1 X94.436 Y114.703 E.42393
G1 X93.57 Y114.703 E.04409
G1 X88.548 Y109.682 E.36158
G1 X88.548 Y110.548 E.04409
G1 X92.704 Y114.703 E.29922
G1 X91.838 Y114.703 E.04409
M73 Q7 S32
G1 X88.548 Y111.414 E.23686
G1 X88.548 Y112.28 E.04409
G1 X90.972 Y114.703 E.17451
G1 X90.106 Y114.703 E.04409
G1 X88.548 Y113.146 E.11215
G1 X88.548 Y114.012 E.04409
G1 X89.513 Y114.977 E.06949
M204 S1000
;LAYER_CHANGE
;Z:0.55
;HEIGHT:0.35
;BEFORE_LAYER_CHANGE
G92 E0.0
;0.55


;WIPE_START
G1 F8640
G1 X88.548 Y114.012 E-.31512
G1 X88.548 Y113.146 E-.19996
G1 X90.033 Y114.631 E-.48492
;WIPE_END
G1 Z.55 F720
;AFTER_LAYER_CHANGE
;0.55
M140 S90 ; set bed temperature
; stop printing object Loop Holder (1).stl id:0 copy 0
G1 Z.75
G1 X89.513 Y118.655 F10800
G1 Z.55 F720
G1 E1 F1500
;TYPE:Skirt/Brim
;WIDTH:0.65
G1 F2385.552
G1 X86.9 Y118.655 E.21859
G1 X85.616 Y118.264 E.11228
G1 X84.768 Y117.223 E.11232
G1 X84.596 Y116.352 E.07427
G1 X84.596 Y93.649 E1.89919
G1 X84.988 Y92.364 E.11239
G1 X86.029 Y91.516 E.11232
G1 X86.9 Y91.345 E.07425
G1 X163.1 Y91.345 E6.37443
G1 X164.384 Y91.736 E.11228
G1 X165.232 Y92.777 E.11232
G1 X165.404 Y93.649 E.07435
G1 X165.404 Y116.352 E1.89919
G1 X165.012 Y117.636 E.11231
G1 X163.971 Y118.484 E.11232
G1 X163.1 Y118.655 E.07425
G1 X89.603 Y118.655 E6.14831
;WIPE_START
G1 F8640
G1 X89.513 Y118.655 E-.02078
G1 X86.9 Y118.655 E-.60335
G1 X85.616 Y118.264 E-.30992
G1 X85.436 Y118.042 E-.06595
;WIPE_END
G1 Z.75 F720
; printing object Loop Holder (1).stl id:0 copy 0
G1 X121.496 Y104.706 F10800
G1 Z.55 F720
G1 E1 F1500
M204 S800
;TYPE:Perimeter
;WIDTH:0.68
G1 X121.539 Y104.883 E.01603
G1 X121.48 Y105.438 E.04913
G1 X121.233 Y105.928 E.0483
G1 X120.876 Y106.263 E.04309
G1 X120.565 Y106.43 E.03107
G1 X120.063 Y106.542 E.04527
G1 X119.607 Y106.493 E.04037
G1 X119.169 Y106.293 E.04238
G1 X118.896 Y106.069 E.03108
G1 X118.635 Y105.721 E.03829
G1 X118.499 Y105.329 E.03652
G1 X118.464 Y104.975 E.03131
G1 X118.55 Y104.477 E.04448
G1 X118.842 Y103.982 E.05059
G1 X119.22 Y103.671 E.04308
G1 X119.682 Y103.499 E.04339
G1 X120.035 Y103.466 E.03121
G1 X120.508 Y103.545 E.04221
G1 X120.937 Y103.775 E.04284
G1 X121.263 Y104.125 E.0421
G1 X121.431 Y104.44 E.03142
G1 X121.474 Y104.618 E.01612
M204 S1000
G1 X120.9 Y104.823 F10800
M204 S800
;TYPE:External perimeter
G1 F1500
G1 X120.934 Y104.969 E.01319
G1 X120.875 Y105.33 E.0322
G1 X120.684 Y105.638 E.0319
G1 X120.388 Y105.852 E.03215
G1 X120.033 Y105.936 E.03211
G1 X119.673 Y105.877 E.03211
G1 X119.363 Y105.685 E.0321
G1 X119.15 Y105.39 E.03203
G1 X119.078 Y105.152 E.02189
G1 X119.101 Y104.732 E.03702
G1 X119.317 Y104.364 E.03756
G1 X119.614 Y104.151 E.03217
G1 X119.973 Y104.067 E.03245
G1 X120.328 Y104.126 E.03168
G1 X120.638 Y104.318 E.0321
G1 X120.851 Y104.614 E.0321
G1 X120.88 Y104.735 E.01095
M204 S1000
;WIPE_START
G1 F8640
G1 X120.9 Y104.823 E-.02084
G1 X120.934 Y104.969 E-.03461
G1 X120.875 Y105.33 E-.08446
G1 X120.684 Y105.638 E-.08368
G1 X120.388 Y105.852 E-.08434
G1 X120.033 Y105.936 E-.08423
G1 X119.673 Y105.877 E-.08423
G1 X119.363 Y105.685 E-.0842
G1 X119.15 Y105.39 E-.08402
G1 X119.078 Y105.152 E-.05741
G1 X119.101 Y104.732 E-.09712
G1 X119.317 Y104.364 E-.09853
G1 X119.614 Y104.151 E-.08439
G1 X119.69 Y104.133 E-.01794
;WIPE_END
G1 Z.75 F720
G1 X162.155 Y115.407 F10800
G1 Z.55 F720
G1 E1 F1500
M204 S800
;TYPE:Perimeter
G1 F2267.24
G1 X87.845 Y115.407 E6.54071
G1 X87.845 Y94.593 E1.83203
M73 P8 R32
M73 Q8 S32
G1 X162.155 Y94.593 E6.54071
G1 X162.155 Y115.317 E1.82411
M204 S1000
G1 X162.76 Y116.012 F10800
M204 S800
;TYPE:External perimeter
G1 F1994.052
G1 X161.74 Y116.012 E.08978
G1 F2099.997
G1 X88.26 Y116.012 E6.46766
G1 F2011.115
G1 X87.24 Y116.012 E.08978
G1 F2018.072
G1 X87.24 Y114.992 E.08978
G1 F2100
G1 X87.24 Y95.009 E1.75889
G1 F2002.346
G1 X87.24 Y93.989 E.08978
G1 F1994.053
G1 X88.26 Y93.989 E.08978
G1 F2100
G1 X161.74 Y93.989 E6.46766
G1 F2002.345
G1 X162.76 Y93.989 E.08978
G1 F1994.052
G1 X162.76 Y95.009 E.08978
G1 F2019.267
G1 X162.76 Y114.991 E1.7588
G1 F2002.345
G1 X162.76 Y115.922 E.08195
M204 S1000
;WIPE_START
G1 F8640
G1 X162.76 Y116.012 E-.02078
G1 X161.74 Y116.012 E-.23552
G1 X158.519 Y116.012 E-.7437
;WIPE_END
G1 Z.75 F720
G1 X88.523 Y95.157 F10800
G1 Z.55 F720
G1 E1 F1500
;TYPE:Solid infill
;WIDTH:0.826763
G1 F1824.553
G1 X88.457 Y95.09 E.01029
G1 X88.366 Y95.114 E.01029
G1 X88.342 Y95.205 E.01029
G1 X88.408 Y95.272 E.01029
G1 X88.499 Y95.247 E.01032
;WIDTH:0.68
G1 F2267.24
G1 X88.359 Y96.214 E.086
G1 X89.465 Y95.108 E.13767
G1 X89.604 Y95.001 E.01544
;WIDTH:0.632555
G1 F2460.207
G1 X89.742 Y94.894 E.01416
;WIDTH:0.585111
G1 F2689.076
G1 X89.681 Y94.911 E.0047
